X:1
T: Apples in Winter
T: 1st setting
R:Reel
I:speed 232
Q:232
K:Am
M:4/4
L:1/8
|:e2cA e2cA|G2GE G2G2|A2AB cB cd|ea ag edd2|
e2cA e2cA|G2GE G2G2|A2AB cB cd|ea ag edd2|
eg g^f eg gf|ea ag ea ag|eg g^f eg gf|ea ag edd2|
eg g^f eg gf|ea ag ea ag|ed dc c2cd|ea ag edd2:|
